build/images/advantage-icon-4.svg

<?xml version="1.0" encoding="UTF-8"?>
<svg width="104px" height="104px" viewBox="0 0 104 104" version="1.1" xmlns="http://www.w3.org/2000/svg" xmlns:xlink="http://www.w3.org/1999/xlink">
    <!-- Generator: sketchtool 54.1 (76490) - https://sketchapp.com -->
    <title>8DE8045F-D530-4457-9E91-EE2A518B9165</title>
    <desc>Created with sketchtool.</desc>
    <g id="Symbols" stroke="none" stroke-width="1" fill="none" fill-rule="evenodd">
        <g id="graphic/main/img04">
            <g id="Group-23">
                <rect id="Rectangle-Copy-11" opacity="0.229999989" x="0" y="0" width="104" height="104"></rect>
                <path d="M66.2715451,76.0119345 L59.9304785,99.6771173 L21.2934455,89.3243555 L27.6345121,65.6591727 C29.2756424,59.5343909 36.1095706,54.6362413 48.1362967,50.9647238 C39.5566051,41.7717334 36.0873245,34.1128473 37.7284549,27.9880655 L44.0695215,4.32288274 L82.7065545,14.6756445 L76.3654879,38.3408273 C74.7243576,44.4656091 67.8904294,49.3637587 55.8637033,53.0352762 C64.4433949,62.2282666 67.9126755,69.8871527 66.2715451,76.0119345 Z" id="Mask" fill="#FFFFFF"></path>
                <path d="M38.8308777,91.9529439 L48.4768514,86.340741 C49.5711346,85.7040672 50.7787675,85.3475366 52,85.2711493 L52,52 C51.9409937,51.9904212 51.8690812,51.9711523 51.7842626,51.9421933 L49.5984416,49.6001241 C41.4415854,40.8601944 38.2423704,33.7975132 39.6603065,28.5057036 L40.6421652,24.8413571 L44.796091,26.0497719 C49.1746084,27.3235224 53.8253916,27.3235224 58.203909,26.0497719 L79,20 L78.948608,20.9730854 L74.4336363,37.8231892 C73.0157001,43.1149988 66.7137581,47.6318527 55.2797486,51.1224257 L53,51.8166547 L53,52.8981304 L53,85.2711493 C54.2212325,85.3475366 55.4288654,85.7040672 56.5231486,86.340741 L60.7711446,88.8123023 L58.516265,97.2276275 L38.8308777,91.9529439 Z" id="Path" fill="#3AA65E"></path>
                <path d="M42.9141269,0.907467172 L85.4148633,12.2955052 C86.4817955,12.5813888 87.1149605,13.6780627 86.8290769,14.7449949 L85.7938007,18.6086982 C85.5079171,19.6756304 84.4112431,20.3087954 83.3443109,20.0229118 L40.8435746,8.63487378 C39.7766424,8.34899016 39.1434774,7.25231625 39.429361,6.18538404 L40.4646372,2.32168073 C40.7505208,1.25474853 41.8471947,0.621583549 42.9141269,0.907467172 Z" id="Rectangle" fill="#1A1A1A"></path>
                <path d="M20.6556891,83.9770882 L63.1564254,95.3651262 C64.2233576,95.6510098 64.8565226,96.7476838 64.570639,97.814616 L63.5353628,101.678319 C63.2494792,102.745251 62.1528053,103.378416 61.0858731,103.092533 L18.5851367,91.7044948 C17.5182045,91.4186112 16.8850395,90.3219373 17.1709231,89.2550051 L18.2061993,85.3913018 C18.4920829,84.3243696 19.5887569,83.6912046 20.6556891,83.9770882 Z" id="Rectangle" fill="#1A1A1A"></path>
                <circle id="Oval" fill="#FFFFFF" opacity="0.5" cx="53" cy="32" r="1"></circle>
                <circle id="Oval" fill="#FFFFFF" opacity="0.5" cx="54" cy="90" r="1"></circle>
                <circle id="Oval" fill="#FFFFFF" opacity="0.5" cx="73" cy="26" r="1"></circle>
                <circle id="Oval" fill="#FFFFFF" opacity="0.5" cx="53" cy="44" r="2"></circle>
                <circle id="Oval" fill="#FFFFFF" opacity="0.5" cx="46" cy="36" r="1"></circle>
                <circle id="Oval" fill="#FFFFFF" opacity="0.5" cx="63" cy="42" r="1"></circle>
                <circle id="Oval" fill="#FFFFFF" opacity="0.5" cx="67" cy="36" r="2"></circle>
            </g>
        </g>
    </g>
</svg>

<svg width="104" height="104" xmlns="http://www.w3.org/2000/svg"><g fill="none" fill-rule="evenodd"><path opacity=".23" d="M0 0h104v104H0z"/><path d="M66.272 76.012L59.93 99.677 21.293 89.324l6.342-23.665c1.64-6.125 8.475-11.023 20.501-14.694-8.58-9.193-12.049-16.852-10.408-22.977L44.07 4.323l38.637 10.353-6.342 23.665c-1.64 6.125-8.475 11.023-20.501 14.694 8.58 9.193 12.049 16.852 10.408 22.977z" fill="#FFF"/><path d="M38.83 91.953l9.647-5.612A7.993 7.993 0 0 1 52 85.27V52a1.37 1.37 0 0 1-.216-.058L49.598 49.6c-8.156-8.74-11.356-15.802-9.938-21.094l.982-3.665 4.154 1.209a24 24 0 0 0 13.408 0L79 20l-.051.973-4.515 16.85c-1.418 5.292-7.72 9.809-19.154 13.3l-2.28.694V85.27a7.993 7.993 0 0 1 3.523 1.07l4.248 2.471-2.255 8.416-19.685-5.275z" fill="#3AA65E"/><path d="M42.914.907l42.5 11.389a2 2 0 0 1 1.415 2.449l-1.035 3.864a2 2 0 0 1-2.45 1.414l-42.5-11.388a2 2 0 0 1-1.415-2.45l1.036-3.863a2 2 0 0 1 2.45-1.415zm-22.258 83.07l42.5 11.388a2 2 0 0 1 1.415 2.45l-1.036 3.863a2 2 0 0 1-2.45 1.415l-42.5-11.389a2 2 0 0 1-1.414-2.449l1.035-3.864a2 2 0 0 1 2.45-1.414z" fill="#1A1A1A"/><circle fill="#FFF" opacity=".5" cx="53" cy="32" r="1"/><circle fill="#FFF" opacity=".5" cx="54" cy="90" r="1"/><circle fill="#FFF" opacity=".5" cx="73" cy="26" r="1"/><circle fill="#FFF" opacity=".5" cx="53" cy="44" r="2"/><circle fill="#FFF" opacity=".5" cx="46" cy="36" r="1"/><circle fill="#FFF" opacity=".5" cx="63" cy="42" r="1"/><circle fill="#FFF" opacity=".5" cx="67" cy="36" r="2"/></g></svg>
